dest/img/img-trust-23.svg

<svg fill="none" height="32" viewBox="0 0 97 32" width="97" xmlns="http://www.w3.org/2000/svg" xmlns:xlink="http://www.w3.org/1999/xlink"><clipPath id="a"><path d="m.974365 0h95.0588v32h-95.0588z"/></clipPath><g clip-path="url(#a)" fill="#576472"><path d="m12.928 8.02966c-6.60658 0-11.953635 5.34524-11.953635 11.94954s5.347055 11.9495 11.953635 11.9495c6.6066 0 11.9537-5.3452 11.9537-11.9495s-5.3471-11.94954-11.9537-11.94954zm0 17.93614c-3.30329 0-5.9887-2.6845-5.9887-5.9866 0-3.3022 2.68541-5.9867 5.9887-5.9867 3.3033 0 5.9887 2.6845 5.9887 5.9867 0 3.3021-2.6854 5.9866-5.9887 5.9866z"/><path d="m33.936 23.9941c0-.9503 1.1407-1.4017 1.8061-.7365 2.9944 3.0408 7.9374 8.2673 7.9612 8.291.0713.0713.1426.1901.4278.2851.1188.0475.3089.0475.5228.0475h5.3946c.9743 0 1.2595-1.1165.808-1.6867l-8.9356-9.1462-.4752-.4752c-1.0219-1.2116-.9031-1.6867.2614-2.922l7.0818-7.91094c.4516-.57015.1664-1.66295-.8317-1.66295h-4.8955c-.1902 0-.3328 0-.4753.04751-.2852.09503-.404.19005-.4753.28508-.0238.02376-3.945 4.2524-6.369 6.8419-.6654.7127-1.8536.2375-1.8536-.7365v-13.56494c0-.688939-.5704-.95026-1.0219-.95026h-3.9925c-.6892 0-1.0219.451373-1.0219.855234v30.075766c0 .6889.5704.8789 1.0457.8789h3.9925c.6178 0 1.0218-.4513 1.0218-.9027v-.3088-6.6043z"/><path d="m66.5412 30.7884-.4278-3.9911c-.0475-.5464-.5703-.9265-1.1169-.8314-.309.0475-.6179.0712-.9268.0712-3.1845 0-5.7749-2.4944-5.965-5.654 0-.0951 0-.2138 0-.3326v-4.8939c0-.6414.4753-1.164 1.117-1.164h5.347c.3803 0 .9506-.3326.9506-1.0216v-3.77724c0-.73645-.4753-1.11655-.903-1.11655h-5.3946c-.6179 0-1.117-.45137-1.1407-1.06904v-6.05791c0-.380104-.2852-.95026-1.0219-.95026h-3.9687c-.4991 0-.9744.308834-.9744.926503v19.456597c.1664 6.4617 5.4659 11.6169 11.9537 11.6169.5466 0 1.0694-.0475 1.5922-.1188.5704-.0713.9506-.5464.8793-1.0928z"/><path d="m95.344 25.7757c-3.3746 0-3.8974-1.2116-3.8974-5.7491 0-.0237 0-.0237 0-.0475v-10.9042c0-.3801-.2852-1.02153-1.0457-1.02153h-3.9924c-.4991 0-1.0457.40386-1.0457 1.02153v.49889c-1.7348-.99778-3.7548-1.56793-5.8936-1.56793-6.6066 0-11.9537 5.34524-11.9537 11.94954s5.3471 11.9495 11.9537 11.9495c2.9706 0 5.6797-1.0928 7.771-2.8745 1.117 1.7104 2.9231 2.8507 5.7511 2.8745.4753 0 3.0419.095 3.0419-1.1166v-4.2524c0-.3563-.2852-.7602-.6892-.7602zm-15.8511.1901c-3.3033 0-5.9887-2.6845-5.9887-5.9867 0-3.3021 2.6854-5.9866 5.9887-5.9866s5.9888 2.6845 5.9888 5.9866c-.0238 3.3022-2.7092 5.9867-5.9888 5.9867z"/></g></svg>

<svg width="97" height="32" viewBox="0 0 97 32" fill="none" xmlns="http://www.w3.org/2000/svg">
<g clip-path="url(#clip0)">
<path d="M12.928 8.02966C6.32142 8.02966 0.974365 13.3749 0.974365 19.9792C0.974365 26.5835 6.32142 31.9287 12.928 31.9287C19.5346 31.9287 24.8817 26.5835 24.8817 19.9792C24.8817 13.3749 19.5346 8.02966 12.928 8.02966ZM12.928 25.9658C9.62471 25.9658 6.9393 23.2813 6.9393 19.9792C6.9393 16.677 9.62471 13.9925 12.928 13.9925C16.2313 13.9925 18.9167 16.677 18.9167 19.9792C18.9167 23.2813 16.2313 25.9658 12.928 25.9658Z" fill="#576472"/>
<path d="M33.936 23.9941C33.936 23.0438 35.0767 22.5924 35.7421 23.2576C38.7365 26.2984 43.6795 31.5249 43.7033 31.5486C43.7746 31.6199 43.8459 31.7387 44.1311 31.8337C44.2499 31.8812 44.44 31.8812 44.6539 31.8812H50.0485C51.0228 31.8812 51.308 30.7647 50.8565 30.1945L41.9209 21.0483L41.4457 20.5731C40.4238 19.3615 40.5426 18.8864 41.7071 17.6511L48.7889 9.74016C49.2405 9.17001 48.9553 8.07721 47.9572 8.07721H43.0617C42.8715 8.07721 42.7289 8.07721 42.5864 8.12472C42.3012 8.21975 42.1824 8.31477 42.1111 8.4098C42.0873 8.43356 38.1661 12.6622 35.7421 15.2517C35.0767 15.9644 33.8885 15.4892 33.8885 14.5152V0.95026C33.8885 0.261321 33.3181 0 32.8666 0H28.8741C28.1849 0 27.8522 0.451373 27.8522 0.855234V30.931C27.8522 31.6199 28.4226 31.8099 28.8979 31.8099H32.8904C33.5082 31.8099 33.9122 31.3586 33.9122 30.9072V30.5984V23.9941H33.936Z" fill="#576472"/>
<path d="M66.5412 30.7884L66.1134 26.7973C66.0659 26.2509 65.5431 25.8708 64.9965 25.9659C64.6875 26.0134 64.3786 26.0371 64.0697 26.0371C60.8852 26.0371 58.2948 23.5427 58.1047 20.3831C58.1047 20.288 58.1047 20.1693 58.1047 20.0505V15.1566C58.1047 14.5152 58.58 13.9926 59.2217 13.9926H64.5687C64.949 13.9926 65.5193 13.66 65.5193 12.971V9.19376C65.5193 8.45731 65.044 8.07721 64.6163 8.07721H59.2217C58.6038 8.07721 58.1047 7.62584 58.081 7.00817V0.95026C58.081 0.570156 57.7958 0 57.0591 0H53.0904C52.5913 0 52.116 0.308834 52.116 0.926503C52.116 0.926503 52.116 20.288 52.116 20.3831C52.2824 26.8448 57.5819 32 64.0697 32C64.6163 32 65.1391 31.9525 65.6619 31.8812C66.2323 31.8099 66.6125 31.3348 66.5412 30.7884Z" fill="#576472"/>
<path d="M95.344 25.7757C91.9694 25.7757 91.4466 24.5641 91.4466 20.0266C91.4466 20.0029 91.4466 20.0029 91.4466 19.9791V9.0749C91.4466 8.6948 91.1614 8.05337 90.4009 8.05337H86.4085C85.9094 8.05337 85.3628 8.45723 85.3628 9.0749V9.57379C83.628 8.57601 81.608 8.00586 79.4692 8.00586C72.8626 8.00586 67.5155 13.3511 67.5155 19.9554C67.5155 26.5597 72.8626 31.9049 79.4692 31.9049C82.4398 31.9049 85.1489 30.8121 87.2402 29.0304C88.3572 30.7408 90.1633 31.8811 92.9913 31.9049C93.4666 31.9049 96.0332 31.9999 96.0332 30.7883V26.5359C96.0332 26.1796 95.748 25.7757 95.344 25.7757ZM79.4929 25.9658C76.1896 25.9658 73.5042 23.2813 73.5042 19.9791C73.5042 16.677 76.1896 13.9925 79.4929 13.9925C82.7962 13.9925 85.4817 16.677 85.4817 19.9791C85.4579 23.2813 82.7725 25.9658 79.4929 25.9658Z" fill="#576472"/>
</g>
<defs>
<clipPath id="clip0">
<rect width="95.0588" height="32" fill="white" transform="translate(0.974365)"/>
</clipPath>
</defs>
</svg>
